angular-fe/src/assets/img/homepage-slogan-1.svg

<?xml version="1.0" encoding="UTF-8"?>
<svg fill="none" viewBox="0 0 438 224" xmlns="http://www.w3.org/2000/svg">
<path d="m26.362 81.952c2.4259-2.9613 4.1429-6.4377 5.02-10.164s0.891-7.6035 0.0407-11.336c-0.6445-2.7086-0.961-5.4849-0.9426-8.2692 0.251-6.07 2.3451-11.92 6.0034-16.77 3.3068-4.4711 4.982-9.9402 4.7464-15.496v-1.2734c0.3924-5.1495 2.7445-9.9526 6.5719-13.42 3.8273-3.4674 8.8386-5.3352 14.002-5.2187 5.1956 0.18985 10.105 2.4262 13.659 6.2213 3.5535 3.7952 5.4624 8.8413 5.3105 14.038v1.2404c-0.5605 5.4946 0.9038 11.005 4.118 15.496 3.3611 5.0501 5.0238 11.041 4.7465 17.101-0.0843 2.7969-0.5063 5.5735-1.2569 8.2691-1.1354 3.6796-1.3841 7.5756-0.7259 11.37 0.6583 3.7941 2.2048 7.3786 4.5132 10.461 3.1301 4.3954 5.3311 9.3829 6.4685 14.658 1.1374 5.2747 1.1874 10.726 0.1468 16.021-1.7661 10.211-7.3483 19.368-15.615 25.616s-18.6 9.12-28.905 8.032c-10.305-1.087-19.811-6.052-26.592-13.887-6.7808-7.836-10.329-17.957-9.9252-28.311-0.0129-8.8744 3.0297-17.483 8.6164-24.378z" fill="#AFDADD"/>
<path d="m60.845 135.4c-0.2501 9e-3 -0.4994-0.034-0.7323-0.125s-0.4445-0.23-0.6215-0.407c-0.1769-0.177-0.3155-0.388-0.4069-0.621-0.0915-0.233-0.1339-0.483-0.1246-0.733v-84.477c0.0441-0.4717 0.2627-0.91 0.6129-1.229 0.3503-0.319 0.8069-0.4958 1.2807-0.4958 0.4737 0 0.9304 0.1768 1.2807 0.4958 0.3502 0.319 0.5688 0.7573 0.6129 1.229v84.477c-0.0351 0.492-0.2471 0.953-0.5969 1.3s-0.8134 0.555-1.305 0.586z" fill="#fff"/>
<path d="m60.216 100.61c-0.6285 0-0.9427-0.314-1.6538-0.6282l-14.223-14.24c-0.3138-0.4077-0.4839-0.9078-0.4839-1.4223s0.1701-1.0146 0.4839-1.4223c0.4111-0.3061 0.9099-0.4714 1.4223-0.4714 0.5125 0 1.0113 0.1653 1.4223 0.4714l14.24 14.24c0.3061 0.411 0.4714 0.9098 0.4714 1.4223 0 0.5124-0.1653 1.0112-0.4714 1.4223 0.0661 0.3142-0.5788 0.6282-1.2073 0.6282z" fill="#fff"/>
<path d="m60.844 114.22c-0.6285 0-0.9427-0.314-1.5712-0.645-0.3138-0.408-0.4839-0.908-0.4839-1.422 0-0.515 0.1701-1.015 0.4839-1.422l14.223-14.223c0.4114-0.3126 0.9139-0.4818 1.4305-0.4818 0.5167 0 1.0192 0.1692 1.4306 0.4818 0.306 0.411 0.4713 0.9098 0.4713 1.4223 0 0.5124-0.1653 1.0112-0.4713 1.4222l-14.24 14.223c-0.3473 0.342-0.7923 0.568-1.2734 0.645z" fill="#fff"/>
<path d="m60.53 73.717c-0.6285 0-0.9427-0.3142-1.6539-0.6285l-14.223-14.239c-0.3061-0.4111-0.4714-0.9099-0.4714-1.4223 0-0.5125 0.1653-1.0113 0.4714-1.4223 0.411-0.3061 0.9098-0.4714 1.4223-0.4714s1.0113 0.1653 1.4223 0.4714l14.24 14.239c0.306 0.4111 0.4713 0.9099 0.4713 1.4223 0 0.5125-0.1653 1.0113-0.4713 1.4223-0.1452 0.1844-0.3279 0.3359-0.536 0.4442-0.2082 0.1084-0.437 0.1712-0.6713 0.1843z" fill="#fff"/>
<path d="m61.192 87.013c-0.6284 0-0.9427-0.3142-1.5711-0.645-0.3061-0.411-0.4714-0.9098-0.4714-1.4223s0.1653-1.0113 0.4714-1.4223l14.239-14.223c0.4078-0.3138 0.9078-0.484 1.4223-0.484s1.0146 0.1702 1.4223 0.484c0.3061 0.411 0.4714 0.9098 0.4714 1.4223 0 0.5124-0.1653 1.0112-0.4714 1.4223l-14.239 14.223c-0.1218 0.224-0.3089 0.4056-0.5363 0.5208-0.2275 0.1152-0.4846 0.1585-0.7372 0.1242z" fill="#fff"/>
<path d="m17.812 164.51h81.021l17.812-48.077h-116.64l17.812 48.077z" fill="#15ADC2"/>
<path d="m438 223.4h-233.52c-15.381-16.869-17.034-38.534 0-51.268h233.52v6.119h-7.443v38.402h7.443v6.747z" fill="#15ADC2"/>
<path d="m430.56 216.66h-221.78c-10.75-8.435-10.915-30.596 0-38.369h221.78v38.369z" fill="#D9EDEF"/>
<path d="m181.14 172.14h233.52c15.381-16.869 17.034-38.534 0-51.268h-233.52v6.119h7.393v38.402h-7.442v6.78l0.049-0.033z" fill="#AFDADD"/>
<path d="m188.54 165.39h221.78c10.749-8.434 10.915-30.595 0-38.368h-221.78v38.368z" fill="#D9EDEF"/>
<path d="m217.78 68.192s-18.854 0-61.688 60.365c14.719 16.042 30.927 0 30.927 0l30.761-60.365z" fill="#fff" stroke="#2E3374" stroke-miterlimit="10" stroke-width="1.5"/>
<path d="m230.01 20.851s13.396 3.8038 19.019 23.98 24.311 14.884 33.077 38.204c8.765 23.319-15.712 48.953-42.504 41.18s-55.899-27.454-55.899-27.454-5.623-26.461 12.9-38.865c18.523-12.404 2.646-20.673 12.734-30.761" fill="#2E3374"/>
<path d="m230.01 20.851s13.396 3.8038 19.019 23.98 24.311 14.884 33.077 38.204c8.765 23.319-15.712 48.953-42.504 41.18s-55.899-27.454-55.899-27.454-5.623-26.461 12.9-38.865c18.523-12.404 2.646-20.673 12.734-30.761" stroke="#2E3374" stroke-miterlimit="10" stroke-width="1.7"/>
<path d="m217.78 69.002s-28.446 13.065-28.446 42.172c0 29.438-10.75 48.623-10.75 48.623l55.073 38.038s31.588-72.934 27.949-104.19c-3.307-25.304-35.226-24.642-35.226-24.642" fill="#fff"/>
<path d="m217.78 69.002s-28.446 13.065-28.446 42.172c0 29.438-10.75 48.623-10.75 48.623l55.073 38.038s31.588-72.934 27.949-104.19c-3.307-25.304-35.226-24.642-35.226-24.642" stroke="#2E3374" stroke-miterlimit="10" stroke-width="1.7"/>
<path d="m172.3 131.02h-85.172l-17.365-62.019h85.172l17.365 62.019z" fill="#fff" stroke="#2E3374" stroke-miterlimit="10" stroke-width="1.7"/>
<path d="m191.81 126.39h-85.172v4.631h85.172v-4.631z" fill="#fff" stroke="#2E3374" stroke-miterlimit="10" stroke-width="1.7"/>
<path d="m225.22 77.792c0.978 0.0043 1.948-0.1852 2.853-0.5576 0.905-0.3725 1.727-0.9205 2.419-1.6124 0.692-0.692 1.24-1.5142 1.612-2.4191 0.373-0.9049 0.562-1.8746 0.558-2.8532v-14.388h-14.885v14.388c-4e-3 0.9786 0.186 1.9483 0.558 2.8532 0.373 0.9049 0.921 1.7271 1.612 2.4191 0.692 0.6919 1.515 1.2399 2.42 1.6124 0.904 0.3724 1.874 0.5619 2.853 0.5576z" fill="#fff" stroke="#2E3374" stroke-miterlimit="10" stroke-width="1.7"/>
<path d="m170.97 137.8s41.842 21.334 60.696 26.461 40.849-75.415 23.021-85.718c-17.828-10.303-24.476 68.469-24.476 68.469s-56.76-18.854-65.36-18.854-8.765 1.488-8.765 7.111 14.884 2.531 14.884 2.531z" fill="#fff" stroke="#2E3374" stroke-miterlimit="10" stroke-width="1.7"/>
<path d="m15.678 222.97h28.115l6.9461-8.6h-11.742c-20.177 0-23.319 8.6-23.319 8.6z" fill="#fff" stroke="#2E3374" stroke-miterlimit="10" stroke-width="1.7"/>
<path d="m206.2 222.97c8.765-0.166 12.569-9.592 6.946-16.208-23.816-28.115-73.761-82.526-104.52-82.526-41.512 0-69.296 90.134-69.296 90.134h11.742l48.292-59.538 72.107 60.53s7.442 7.773 13.231 7.773h22.823" fill="#D5401A"/>
<path d="m206.2 222.97c8.765-0.166 12.569-9.592 6.946-16.208-23.816-28.115-73.761-82.526-104.52-82.526-41.512 0-69.296 90.134-69.296 90.134h11.742l48.292-59.538 72.107 60.53s7.442 7.773 13.231 7.773h22.823" stroke="#2E3374" stroke-miterlimit="10" stroke-width="1.7"/>
<path d="m42.305 222.97h28.115l6.9461-8.6h-11.742c-20.177 0-23.319 8.6-23.319 8.6z" fill="#fff" stroke="#2E3374" stroke-miterlimit="10" stroke-width="1.7"/>
<path d="m135.08 124.24c-41.512 0-69.296 90.134-69.296 90.134h11.742l48.292-59.538s57.388 68.138 82.857 68.138 25.138-25.138 25.138-25.138-57.222-73.596-98.733-73.596z" fill="#D5401A" stroke="#2E3374" stroke-miterlimit="10" stroke-width="1.7"/>
<path d="m236.3 41.904v-0.9923c0-1.8026-0.355-3.5876-1.045-5.253s-1.701-3.1786-2.975-4.4533c-1.275-1.2746-2.788-2.2857-4.454-2.9756-1.665-0.6898-3.45-1.0448-5.253-1.0448-1.802 0-3.587 0.355-5.253 1.0448-1.665 0.6899-3.178 1.701-4.453 2.9756-1.275 1.2747-2.286 2.7879-2.976 4.4533-0.689 1.6654-1.044 3.4504-1.044 5.253v7.9384c-0.04 3.5248 1.283 6.9288 3.692 9.5019s5.719 4.1166 9.239 4.3086 6.978-0.9824 9.653-3.2782 4.36-5.5356 4.704-9.0438h0.165c0.545-0.017 1.08-0.1422 1.576-0.3684s0.941-0.5489 1.311-0.9492c0.369-0.4003 0.655-0.8702 0.841-1.3822 0.186-0.5121 0.268-1.0561 0.241-1.6002 0.025-0.5356-0.059-1.0705-0.248-1.5724s-0.477-0.9601-0.849-1.3469c-0.371-0.3868-0.817-0.6939-1.311-0.9029-0.494-0.2089-1.025-0.3152-1.561-0.3124z" fill="#fff" stroke="#2E3374" stroke-miterlimit="10" stroke-width="1.7"/>
<path d="m222.57 18.089s-21.5 0.4961-21.5 14.554c0 14.058 31.423 3.6384 31.423 3.6384l3.969 8.2691h2.481c-0.165 0 6.45-26.461-16.373-26.461z" fill="#2E3374" stroke="#2E3374" stroke-miterlimit="10" stroke-width="1.7"/>
</svg>

<svg width="438" height="224" viewBox="0 0 438 224" fill="none" xmlns="http://www.w3.org/2000/svg">
<path d="M26.3623 81.9524C28.7882 78.9911 30.5052 75.5147 31.3823 71.7885C32.2594 68.0623 32.2733 64.185 31.423 60.4526C30.7785 57.744 30.462 54.9677 30.4804 52.1834C30.7314 46.1134 32.8255 40.2639 36.4838 35.4136C39.7906 30.9425 41.4658 25.4734 41.2302 19.9172V18.6438C41.6226 13.4943 43.9747 8.69121 47.8021 5.2238C51.6294 1.75639 56.6407 -0.111381 61.8039 0.00514169C66.9995 0.194996 71.9093 2.4313 75.4628 6.22643C79.0163 10.0216 80.9252 15.0677 80.7733 20.2645V21.5049C80.2128 26.9995 81.6771 32.5098 84.8913 37.0013C88.2524 42.0514 89.9151 48.0419 89.6378 54.1019C89.5535 56.8988 89.1315 59.6754 88.3809 62.371C87.2455 66.0506 86.9968 69.9466 87.655 73.7408C88.3133 77.5349 89.8598 81.1194 92.1682 84.2016C95.2983 88.597 97.4993 93.5845 98.6367 98.8593C99.7741 104.134 99.8241 109.585 98.7835 114.88C97.0174 125.091 91.4352 134.248 83.1684 140.496C74.9016 146.744 64.5685 149.616 54.2634 148.528C43.9583 147.441 34.452 142.476 27.6711 134.641C20.8903 126.805 17.3422 116.684 17.7459 106.33C17.733 97.4556 20.7756 88.8474 26.3623 81.9524Z" fill="#AFDADD"/>
<path d="M60.8446 135.404C60.5945 135.413 60.3452 135.37 60.1123 135.279C59.8794 135.188 59.6678 135.049 59.4908 134.872C59.3139 134.695 59.1753 134.484 59.0839 134.251C58.9924 134.018 58.95 133.768 58.9593 133.518V49.0407C59.0034 48.569 59.222 48.1307 59.5722 47.8117C59.9225 47.4927 60.3791 47.3159 60.8529 47.3159C61.3266 47.3159 61.7833 47.4927 62.1336 47.8117C62.4838 48.1307 62.7024 48.569 62.7465 49.0407V133.518C62.7114 134.01 62.4994 134.471 62.1496 134.818C61.7998 135.165 61.3362 135.373 60.8446 135.404Z" fill="white"/>
<path d="M60.2162 100.607C59.5877 100.607 59.2735 100.293 58.5624 99.9788L44.3394 85.7393C44.0256 85.3316 43.8555 84.8315 43.8555 84.317C43.8555 83.8025 44.0256 83.3024 44.3394 82.8947C44.7505 82.5886 45.2493 82.4233 45.7617 82.4233C46.2742 82.4233 46.773 82.5886 47.184 82.8947L61.4235 97.1342C61.7296 97.5452 61.8949 98.044 61.8949 98.5565C61.8949 99.0689 61.7296 99.5677 61.4235 99.9788C61.4896 100.293 60.8447 100.607 60.2162 100.607Z" fill="white"/>
<path d="M60.8442 114.218C60.2157 114.218 59.9015 113.904 59.273 113.573C58.9592 113.165 58.7891 112.665 58.7891 112.151C58.7891 111.636 58.9592 111.136 59.273 110.729L73.496 96.5057C73.9074 96.1931 74.4099 96.0239 74.9265 96.0239C75.4432 96.0239 75.9457 96.1931 76.3571 96.5057C76.6631 96.9167 76.8284 97.4155 76.8284 97.928C76.8284 98.4404 76.6631 98.9392 76.3571 99.3502L62.1176 113.573C61.7703 113.915 61.3253 114.141 60.8442 114.218Z" fill="white"/>
<path d="M60.5298 73.7166C59.9013 73.7166 59.5871 73.4024 58.8759 73.0881L44.653 58.8487C44.3469 58.4376 44.1816 57.9388 44.1816 57.4264C44.1816 56.9139 44.3469 56.4151 44.653 56.0041C45.064 55.698 45.5628 55.5327 46.0753 55.5327C46.5878 55.5327 47.0866 55.698 47.4976 56.0041L61.7371 70.2435C62.0431 70.6546 62.2084 71.1534 62.2084 71.6658C62.2084 72.1783 62.0431 72.6771 61.7371 73.0881C61.5919 73.2725 61.4092 73.424 61.2011 73.5323C60.9929 73.6407 60.7641 73.7035 60.5298 73.7166Z" fill="white"/>
<path d="M61.1919 87.0129C60.5635 87.0129 60.2492 86.6987 59.6208 86.3679C59.3147 85.9569 59.1494 85.4581 59.1494 84.9456C59.1494 84.4331 59.3147 83.9343 59.6208 83.5233L73.8602 69.3004C74.268 68.9866 74.768 68.8164 75.2825 68.8164C75.797 68.8164 76.2971 68.9866 76.7048 69.3004C77.0109 69.7114 77.1762 70.2102 77.1762 70.7227C77.1762 71.2351 77.0109 71.7339 76.7048 72.145L62.4654 86.3679C62.3436 86.5919 62.1565 86.7735 61.9291 86.8887C61.7016 87.0039 61.4445 87.0472 61.1919 87.0129Z" fill="white"/>
<path d="M17.8117 164.511H98.8328L116.645 116.434H0L17.8117 164.511Z" fill="#15ADC2"/>
<path d="M438.001 223.404H204.48C189.099 206.535 187.446 184.87 204.48 172.136H438.001V178.255H430.558V216.657H438.001V223.404Z" fill="#15ADC2"/>
<path d="M430.557 216.656H208.779C198.029 208.221 197.864 186.06 208.779 178.287H430.557V216.656Z" fill="#D9EDEF"/>
<path d="M181.143 172.135H414.664C430.045 155.266 431.698 133.601 414.664 120.867H181.143V126.986H188.536V165.388H181.094V172.168L181.143 172.135Z" fill="#AFDADD"/>
<path d="M188.537 165.387H410.316C421.065 156.953 421.231 134.792 410.316 127.019H188.537V165.387Z" fill="#D9EDEF"/>
<path d="M217.776 68.1924C217.776 68.1924 198.922 68.1924 156.088 128.557C170.807 144.599 187.015 128.557 187.015 128.557L217.776 68.1924Z" fill="white" stroke="#2E3374" stroke-width="1.5" stroke-miterlimit="10"/>
<path d="M230.014 20.8506C230.014 20.8506 243.41 24.6544 249.033 44.8311C254.656 65.0078 273.344 59.7156 282.11 83.0346C290.875 106.354 266.398 131.988 239.606 124.215C212.814 116.442 183.707 96.7613 183.707 96.7613C183.707 96.7613 178.084 70.3001 196.607 57.8964C215.13 45.4926 199.253 37.2235 209.341 27.1351" fill="#2E3374"/>
<path d="M230.014 20.8506C230.014 20.8506 243.41 24.6544 249.033 44.8311C254.656 65.0078 273.344 59.7156 282.11 83.0346C290.875 106.354 266.398 131.988 239.606 124.215C212.814 116.442 183.707 96.7613 183.707 96.7613C183.707 96.7613 178.084 70.3001 196.607 57.8964C215.13 45.4926 199.253 37.2235 209.341 27.1351" stroke="#2E3374" stroke-width="1.7" stroke-miterlimit="10"/>
<path d="M217.776 69.0016C217.776 69.0016 189.33 82.0669 189.33 111.174C189.33 140.612 178.58 159.797 178.58 159.797L233.653 197.835C233.653 197.835 265.241 124.901 261.602 93.6437C258.295 68.3401 226.376 69.0016 226.376 69.0016" fill="white"/>
<path d="M217.776 69.0016C217.776 69.0016 189.33 82.0669 189.33 111.174C189.33 140.612 178.58 159.797 178.58 159.797L233.653 197.835C233.653 197.835 265.241 124.901 261.602 93.6437C258.295 68.3401 226.376 69.0016 226.376 69.0016" stroke="#2E3374" stroke-width="1.7" stroke-miterlimit="10"/>
<path d="M172.295 131.021H87.123L69.7578 69.002H154.93L172.295 131.021Z" fill="white" stroke="#2E3374" stroke-width="1.7" stroke-miterlimit="10"/>
<path d="M191.811 126.39H106.639V131.021H191.811V126.39Z" fill="white" stroke="#2E3374" stroke-width="1.7" stroke-miterlimit="10"/>
<path d="M225.218 77.792C226.196 77.7963 227.166 77.6068 228.071 77.2344C228.976 76.8619 229.798 76.3139 230.49 75.622C231.182 74.93 231.73 74.1078 232.102 73.2029C232.475 72.298 232.664 71.3283 232.66 70.3497V55.9614H217.775V70.3497C217.771 71.3283 217.961 72.298 218.333 73.2029C218.706 74.1078 219.254 74.93 219.945 75.622C220.637 76.3139 221.46 76.8619 222.365 77.2344C223.269 77.6068 224.239 77.7963 225.218 77.792Z" fill="white" stroke="#2E3374" stroke-width="1.7" stroke-miterlimit="10"/>
<path d="M170.972 137.801C170.972 137.801 212.814 159.135 231.668 164.262C250.522 169.389 272.517 88.8474 254.689 78.544C236.861 68.2407 230.213 147.013 230.213 147.013C230.213 147.013 173.453 128.159 164.853 128.159C156.253 128.159 156.088 129.647 156.088 135.27C156.088 140.893 170.972 137.801 170.972 137.801Z" fill="white" stroke="#2E3374" stroke-width="1.7" stroke-miterlimit="10"/>
<path d="M15.6777 222.973H43.7928L50.7389 214.373H38.9967C18.82 214.373 15.6777 222.973 15.6777 222.973Z" fill="white" stroke="#2E3374" stroke-width="1.7" stroke-miterlimit="10"/>
<path d="M206.199 222.973C214.964 222.807 218.768 213.381 213.145 206.765C189.329 178.65 139.384 124.239 108.623 124.239C67.1115 124.239 39.3271 214.373 39.3271 214.373H51.0693L99.3612 154.835L171.468 215.365C171.468 215.365 178.91 223.138 184.699 223.138H207.522" fill="#D5401A"/>
<path d="M206.199 222.973C214.964 222.807 218.768 213.381 213.145 206.765C189.329 178.65 139.384 124.239 108.623 124.239C67.1115 124.239 39.3271 214.373 39.3271 214.373H51.0693L99.3612 154.835L171.468 215.365C171.468 215.365 178.91 223.138 184.699 223.138H207.522" stroke="#2E3374" stroke-width="1.7" stroke-miterlimit="10"/>
<path d="M42.3047 222.973H70.4198L77.3659 214.373H65.6237C45.447 214.373 42.3047 222.973 42.3047 222.973Z" fill="white" stroke="#2E3374" stroke-width="1.7" stroke-miterlimit="10"/>
<path d="M135.085 124.239C93.5734 124.239 65.7891 214.373 65.7891 214.373H77.5313L125.823 154.835C125.823 154.835 183.211 222.973 208.68 222.973C234.149 222.973 233.818 197.835 233.818 197.835C233.818 197.835 176.596 124.239 135.085 124.239Z" fill="#D5401A" stroke="#2E3374" stroke-width="1.7" stroke-miterlimit="10"/>
<path d="M236.298 41.9041V40.9118C236.298 39.1092 235.943 37.3242 235.253 35.6588C234.563 33.9934 233.552 32.4802 232.278 31.2055C231.003 29.9309 229.49 28.9198 227.824 28.2299C226.159 27.5401 224.374 27.1851 222.571 27.1851C220.769 27.1851 218.984 27.5401 217.318 28.2299C215.653 28.9198 214.14 29.9309 212.865 31.2055C211.59 32.4802 210.579 33.9934 209.889 35.6588C209.2 37.3242 208.845 39.1092 208.845 40.9118V48.8502C208.805 52.375 210.128 55.779 212.537 58.3521C214.946 60.9252 218.256 62.4687 221.776 62.6607C225.296 62.8527 228.754 61.6783 231.429 59.3825C234.104 57.0867 235.789 53.8469 236.133 50.3387H236.298C236.843 50.3217 237.378 50.1965 237.874 49.9703C238.37 49.7441 238.815 49.4214 239.185 49.0211C239.554 48.6208 239.84 48.1509 240.026 47.6389C240.212 47.1268 240.294 46.5828 240.267 46.0387C240.292 45.5031 240.208 44.9682 240.019 44.4663C239.83 43.9644 239.542 43.5062 239.17 43.1194C238.799 42.7326 238.353 42.4255 237.859 42.2165C237.365 42.0076 236.834 41.9013 236.298 41.9041Z" fill="white" stroke="#2E3374" stroke-width="1.7" stroke-miterlimit="10"/>
<path d="M222.572 18.0889C222.572 18.0889 201.072 18.585 201.072 32.6426C201.072 46.7001 232.495 36.281 232.495 36.281L236.464 44.5501H238.945C238.78 44.5501 245.395 18.0889 222.572 18.0889Z" fill="#2E3374" stroke="#2E3374" stroke-width="1.7" stroke-miterlimit="10"/>
</svg>
